svg/color/ltfg.svg

<?xml version="1.0" encoding="UTF-8" ?>
<!DOCTYPE svg PUBLIC "-//W3C//DTD SVG 1.1//EN" "http://www.w3.org/Graphics/SVG/1.1/DTD/svg11.dtd">
<svg width="250pt" height="250pt" viewBox="0 0 250 250" version="1.1" xmlns="http://www.w3.org/2000/svg">
<g id="#ffffffff">
<path fill="#ffffff" opacity="1.00" d=" M 0.00 0.00 L 250.00 0.00 L 250.00 250.00 L 0.00 250.00 L 0.00 0.00 M 122.91 4.79 C 98.33 5.43 73.97 13.56 54.18 28.19 C 30.89 45.10 14.11 70.71 7.84 98.79 C 2.99 119.80 4.01 142.10 10.68 162.60 C 17.45 183.63 30.10 202.76 46.93 217.09 C 66.64 234.17 92.07 244.41 118.09 245.98 C 140.94 247.48 164.16 242.14 184.16 231.00 C 208.48 217.62 227.80 195.49 237.85 169.62 C 247.31 145.72 248.84 118.76 242.00 93.98 C 234.82 67.02 217.85 42.83 194.99 26.84 C 174.13 12.04 148.46 4.31 122.91 4.79 Z" />
</g>
<g id="#010101ff">
<path fill="#010101" opacity="1.00" d=" M 122.91 4.79 C 148.46 4.31 174.13 12.04 194.99 26.84 C 217.85 42.83 234.82 67.02 242.00 93.98 C 248.84 118.76 247.31 145.72 237.85 169.62 C 227.80 195.49 208.48 217.62 184.16 231.00 C 164.16 242.14 140.94 247.48 118.09 245.98 C 92.07 244.41 66.64 234.17 46.93 217.09 C 30.10 202.76 17.45 183.63 10.68 162.60 C 4.01 142.10 2.99 119.80 7.84 98.79 C 14.11 70.71 30.89 45.10 54.18 28.19 C 73.97 13.56 98.33 5.43 122.91 4.79 M 92.88 21.65 C 67.75 29.43 45.76 46.75 32.25 69.32 C 21.82 86.60 16.32 106.85 16.61 127.03 C 16.90 165.58 39.35 203.49 73.82 221.12 C 83.94 211.23 92.73 199.69 97.99 186.46 C 87.81 186.34 77.63 186.45 67.44 186.42 C 67.40 180.59 67.51 174.76 67.36 168.94 C 46.99 164.52 28.94 149.72 20.99 130.38 C 36.47 130.26 51.95 130.40 67.43 130.32 C 67.43 126.77 67.43 123.21 67.45 119.66 C 108.14 119.62 148.83 119.64 189.52 119.64 C 189.58 124.83 189.54 130.02 189.54 135.22 C 200.81 137.85 211.19 143.66 219.80 151.32 C 220.17 152.68 218.86 153.33 218.03 154.10 C 209.46 161.08 200.13 167.44 189.60 171.04 C 189.49 176.16 189.58 181.28 189.53 186.41 C 178.42 186.48 167.31 186.28 156.20 186.51 C 161.33 199.34 169.69 210.72 179.99 219.88 C 188.35 214.89 196.22 209.02 202.99 202.02 C 223.37 181.63 234.94 152.79 234.41 123.98 C 234.19 86.35 212.77 49.58 179.84 31.25 L 179.16 31.30 C 169.33 38.49 159.71 45.95 149.88 53.13 C 159.50 58.60 169.45 63.48 179.01 69.07 C 180.74 69.79 180.66 71.68 180.68 73.25 C 150.14 88.40 119.20 102.75 88.54 117.66 C 86.63 119.08 84.42 118.60 82.72 117.13 C 82.58 115.53 81.85 113.59 83.34 112.39 C 95.40 100.44 107.99 89.04 120.13 77.17 C 122.09 75.09 124.85 73.62 126.03 70.91 C 116.23 65.84 106.59 60.44 96.87 55.20 C 94.88 54.45 93.43 51.89 95.12 50.15 C 106.65 38.98 118.24 27.86 129.80 16.73 C 117.33 16.06 104.78 17.96 92.88 21.65 Z" />
</g>
<g id="#fffe01ff">
<path fill="#fffe01" opacity="1.00" d=" M 92.88 21.65 C 104.78 17.96 117.33 16.06 129.80 16.73 C 118.24 27.86 106.65 38.98 95.12 50.15 C 93.43 51.89 94.88 54.45 96.87 55.20 C 106.59 60.44 116.23 65.84 126.03 70.91 C 124.85 73.62 122.09 75.09 120.13 77.17 C 107.99 89.04 95.40 100.44 83.34 112.39 C 81.85 113.59 82.58 115.53 82.72 117.13 C 84.42 118.60 86.63 119.08 88.54 117.66 C 119.20 102.75 150.14 88.40 180.68 73.25 C 180.66 71.68 180.74 69.79 179.01 69.07 C 169.45 63.48 159.50 58.60 149.88 53.13 C 159.71 45.95 169.33 38.49 179.16 31.30 L 179.84 31.25 C 212.77 49.58 234.19 86.35 234.41 123.98 C 234.94 152.79 223.37 181.63 202.99 202.02 C 196.22 209.02 188.35 214.89 179.99 219.88 C 169.69 210.72 161.33 199.34 156.20 186.51 C 167.31 186.28 178.42 186.48 189.53 186.41 C 189.58 181.28 189.49 176.16 189.60 171.04 C 200.13 167.44 209.46 161.08 218.03 154.10 C 218.86 153.33 220.17 152.68 219.80 151.32 C 211.19 143.66 200.81 137.85 189.54 135.22 C 189.54 130.02 189.58 124.83 189.52 119.64 C 148.83 119.64 108.14 119.62 67.45 119.66 C 67.43 123.21 67.43 126.77 67.43 130.32 C 51.95 130.40 36.47 130.26 20.99 130.38 C 28.94 149.72 46.99 164.52 67.36 168.94 C 67.51 174.76 67.40 180.59 67.44 186.42 C 77.63 186.45 87.81 186.34 97.99 186.46 C 92.73 199.69 83.94 211.23 73.82 221.12 C 39.35 203.49 16.90 165.58 16.61 127.03 C 16.32 106.85 21.82 86.60 32.25 69.32 C 45.76 46.75 67.75 29.43 92.88 21.65 Z" />
</g>
</svg>

<?xml version="1.0" encoding="utf-8"?>
<!-- Generator: Adobe Illustrator 26.0.3, SVG Export Plug-In . SVG Version: 6.00 Build 0)  -->
<svg version="1.1" id="Layer_1" xmlns="http://www.w3.org/2000/svg" xmlns:xlink="http://www.w3.org/1999/xlink" x="0px" y="0px"
	 viewBox="0 0 250 250" style="enable-background:new 0 0 250 250;" xml:space="preserve">
<style type="text/css">
	.st0{fill:#010101;}
	.st1{fill:#FFFE01;}
</style>
<g id="_x23_010101ff">
	<path class="st0" d="M122.9,4.8c25.6-0.5,51.2,7.2,72.1,22c22.9,16,39.8,40.2,47,67.1c6.8,24.8,5.3,51.7-4.1,75.6
		c-10.1,25.9-29.4,48-53.7,61.4c-20,11.1-43.2,16.5-66.1,15c-26-1.6-51.4-11.8-71.2-28.9c-16.8-14.3-29.5-33.5-36.2-54.5
		C4,142.1,3,119.8,7.8,98.8c6.3-28.1,23-53.7,46.3-70.6C74,13.6,98.3,5.4,122.9,4.8 M92.9,21.6c-25.1,7.8-47.1,25.1-60.6,47.7
		C21.8,86.6,16.3,106.8,16.6,127c0.3,38.6,22.7,76.5,57.2,94.1c10.1-9.9,18.9-21.4,24.2-34.7c-10.2-0.1-20.4,0-30.5,0
		c0-5.8,0.1-11.7-0.1-17.5C47,164.5,28.9,149.7,21,130.4c15.5-0.1,31,0,46.4-0.1c0-3.6,0-7.1,0-10.7c40.7,0,81.4,0,122.1,0
		c0.1,5.2,0,10.4,0,15.6c11.3,2.6,21.7,8.4,30.3,16.1c0.4,1.4-0.9,2-1.8,2.8c-8.6,7-17.9,13.3-28.4,16.9c-0.1,5.1,0,10.2-0.1,15.4
		c-11.1,0.1-22.2-0.1-33.3,0.1c5.1,12.8,13.5,24.2,23.8,33.4c8.4-5,16.2-10.9,23-17.9c20.4-20.4,31.9-49.2,31.4-78
		c-0.2-37.6-21.6-74.4-54.6-92.7l-0.7,0c-9.8,7.2-19.4,14.7-29.3,21.8c9.6,5.5,19.6,10.3,29.1,15.9c1.7,0.7,1.7,2.6,1.7,4.2
		c-30.5,15.2-61.5,29.5-92.1,44.4c-1.9,1.4-4.1,0.9-5.8-0.5c-0.1-1.6-0.9-3.5,0.6-4.7C95.4,100.4,108,89,120.1,77.2
		c2-2.1,4.7-3.5,5.9-6.3c-9.8-5.1-19.4-10.5-29.2-15.7c-2-0.8-3.4-3.3-1.8-5c11.5-11.2,23.1-22.3,34.7-33.4
		C117.3,16.1,104.8,18,92.9,21.6z"/>
</g>
<g id="_x23_fffe01ff">
	<path class="st1" d="M92.9,21.6c11.9-3.7,24.5-5.6,36.9-4.9C118.2,27.9,106.7,39,95.1,50.2c-1.7,1.7-0.2,4.3,1.8,5
		c9.7,5.2,19.4,10.6,29.2,15.7c-1.2,2.7-3.9,4.2-5.9,6.3C108,89,95.4,100.4,83.3,112.4c-1.5,1.2-0.8,3.1-0.6,4.7
		c1.7,1.5,3.9,2,5.8,0.5c30.7-14.9,61.6-29.3,92.1-44.4c0-1.6,0.1-3.5-1.7-4.2c-9.6-5.6-19.5-10.5-29.1-15.9
		c9.8-7.2,19.4-14.6,29.3-21.8l0.7,0c32.9,18.3,54.4,55.1,54.6,92.7c0.5,28.8-11,57.7-31.4,78c-6.8,7-14.6,12.9-23,17.9
		c-10.3-9.2-18.7-20.5-23.8-33.4c11.1-0.2,22.2,0,33.3-0.1c0.1-5.1,0-10.2,0.1-15.4c10.5-3.6,19.9-10,28.4-16.9
		c0.8-0.8,2.1-1.4,1.8-2.8c-8.6-7.7-19-13.5-30.3-16.1c0-5.2,0-10.4,0-15.6c-40.7,0-81.4,0-122.1,0c0,3.5,0,7.1,0,10.7
		c-15.5,0.1-31-0.1-46.4,0.1c8,19.3,26,34.1,46.4,38.6c0.2,5.8,0,11.6,0.1,17.5c10.2,0,20.4-0.1,30.5,0c-5.3,13.2-14,24.8-24.2,34.7
		c-34.5-17.6-56.9-55.5-57.2-94.1c-0.3-20.2,5.2-40.4,15.6-57.7C45.8,46.8,67.8,29.4,92.9,21.6z"/>
</g>
</svg>
